X:490
T:Argeers
T:Tune
M:4/4
L:1/8
B:The Round Band Book of Playford
K:D
P:A
"D"defg e2d2 | "A"c2A2 A4 | "A"a2e2 a3g | "D"f2d2 d4 | \
"Bm"defg "Em"e2d2 | "A"c3d e2A2 | "G"Bcd2 "A7"cdef | "D"d6 z2 :|
P:B
|:"A"cde2 cde2 | a2e2 a2e2 | cde2 cde2 | a2e2 a2e2 | \
"D"a2gf "G"g2ag | "D"f2ed "A"e3A | "G"Bcd2 "A7"cdef | "D"d6 z2 :|
T:Harmony
P:B
F2|A8-|A8-|A8-|A4 z4|d2AA B2G2|A2F2 G2E2|FGA2 GFE2|D6:|
T:Bass line
P:A
d2z2 B2z2|A2z2 z4|A2z2 c2z2|d2z2 z2c2|B2z2 A2z2|G2z2 E2z2|A8-|A2A2 B2c2|
d2z2 B2z2|A2z2 z4|A2z2 c2z2|d2z2 z2c2|B2z2 A2z2|G2z2 E2z2|A2z2 c2z2|d2z2 c2B2|
P:B
|:A8-|A4 z2A2|A8-|A2A2 B2c2|d2z2 G2z2|B2z2 A2z2|G2z2 c2z2|d2z2 c2B2:|

